X: 083
M: 2/4
L: 1/16
K: G
[|\
d2cB TA3G | AGFE D4 |\
d2cB AcBA | G4   G4 |]\
d2d2 c2c2 | B2B2 A2D2 |\
d2d2 c2c2 | B2B2 A4 |\
d2cB A2G2 | AGFE D4 |\
dgfg B2cA | G4   G4 |]

